austria/municipalities/41730.svg

<?xml version="1.0" encoding="UTF-8"?>
<!DOCTYPE svg PUBLIC "-//W3C//DTD SVG 1.1//EN" "http://www.w3.org/Graphics/SVG/1.1/DTD/svg11.dtd">
<svg xmlns="http://www.w3.org/2000/svg" version="1.1" width="166px" height="207px" style="shape-rendering:geometricPrecision; text-rendering:geometricPrecision; image-rendering:optimizeQuality; fill-rule:evenodd; clip-rule:evenodd" xmlns:xlink="http://www.w3.org/1999/xlink">
<g><path style="opacity:1" fill="#000000" d="M -0.5,-0.5 C 54.8333,-0.5 110.167,-0.5 165.5,-0.5C 165.5,44.1667 165.5,88.8333 165.5,133.5C 160.657,161.881 145.657,183.381 120.5,198C 112.336,201.554 104.002,204.388 95.5,206.5C 86.8333,206.5 78.1667,206.5 69.5,206.5C 29.593,196.928 6.25968,171.928 -0.5,131.5C -0.5,87.5 -0.5,43.5 -0.5,-0.5 Z"/></g>
<g><path style="opacity:1" fill="#fea700" d="M 3.5,3.5 C 53.5011,3.33334 103.501,3.50001 153.5,4C 144.313,6.85223 137.146,12.3522 132,20.5C 129.839,25.4924 127.172,30.1591 124,34.5C 116.167,40.3333 108.333,46.1667 100.5,52C 95.1667,59 89.8333,66 84.5,73C 77.1872,77.6357 69.8539,82.3024 62.5,87C 54.7881,94.0392 48.6215,102.206 44,111.5C 40.1579,117.017 34.9913,120.517 28.5,122C 25.672,124.248 22.672,126.248 19.5,128C 14.5203,133.641 10.3536,139.808 7,146.5C 5.74917,142.918 4.74917,139.251 4,135.5C 3.50001,91.5013 3.33334,47.5013 3.5,3.5 Z"/></g>
<g><path style="opacity:1" fill="#002b72" d="M 157.5,3.5 C 158.833,3.5 160.167,3.5 161.5,3.5C 161.5,6.16667 161.5,8.83333 161.5,11.5C 160.127,11.3433 158.793,11.51 157.5,12C 153.334,14.9175 149.001,17.5841 144.5,20C 139.383,28.392 133.883,36.5586 128,44.5C 121.033,48.6358 114.2,52.9692 107.5,57.5C 101.801,64.399 96.4678,71.5657 91.5,79C 81.8269,84.5013 72.4936,90.5013 63.5,97C 57.7086,104.744 52.5419,112.911 48,121.5C 46.8333,122.667 45.6667,123.833 44.5,125C 34.1714,128.736 25.3381,134.569 18,142.5C 15.3933,147.38 13.06,152.38 11,157.5C 9.64373,155.102 8.47707,152.602 7.5,150C 10.5386,143.945 14.0386,138.112 18,132.5C 25.4097,126.876 33.2431,121.876 41.5,117.5C 47.8767,107.286 55.2101,97.7864 63.5,89C 70.3324,84.4161 77.3324,80.0827 84.5,76C 90.5925,67.8181 96.9259,59.8181 103.5,52C 108.656,47.5859 114.323,43.9193 120.5,41C 126.838,34.3252 132.004,26.8252 136,18.5C 137.5,17 139,15.5 140.5,14C 145.961,9.94747 151.628,6.44747 157.5,3.5 Z"/></g>
<g><path style="opacity:1" fill="#fefffe" d="M 158.5,13.5 C 159.5,13.5 160.5,13.5 161.5,13.5C 161.826,17.8839 161.492,22.2172 160.5,26.5C 112.099,72.7383 63.5985,118.738 15,164.5C 13.7792,163.226 12.9459,161.726 12.5,160C 17.4944,143.006 28.4944,132.006 45.5,127C 47.3333,125.167 49.1667,123.333 51,121.5C 54.761,114.305 58.761,107.305 63,100.5C 71.2206,93.1236 80.3872,87.1236 90.5,82.5C 96.8187,75.1928 102.652,67.5261 108,59.5C 114.416,55.3746 120.916,51.3746 127.5,47.5C 134.648,41.2152 139.815,33.5485 143,24.5C 147.829,20.1858 152.995,16.5191 158.5,13.5 Z"/></g>
<g><path style="opacity:1" fill="#000000" d="M 52.5,22.5 C 51.8826,22.3893 51.3826,22.056 51,21.5C 50.3088,24.266 48.8088,24.9327 46.5,23.5C 46.0244,26.7395 46.0244,30.0729 46.5,33.5C 45.2395,30.1615 44.2395,26.6615 43.5,23C 44.5458,21.4615 45.8791,21.2948 47.5,22.5C 49.0879,21.9904 50.2545,20.9904 51,19.5C 52.0386,20.2438 52.5386,21.2438 52.5,22.5 Z"/></g>
<g><path style="opacity:1" fill="#052969" d="M 52.5,22.5 C 52.7751,24.7583 53.7751,25.0916 55.5,23.5C 55.8333,24.5 56.1667,25.5 56.5,26.5C 55.4423,31.1194 54.7756,35.7861 54.5,40.5C 56.3264,38.8525 57.6597,36.8525 58.5,34.5C 60.0236,30.7978 62.1903,27.4645 65,24.5C 65.4643,25.0944 65.631,25.7611 65.5,26.5C 65.7958,29.993 67.4625,31.1596 70.5,30C 69.2946,32.2342 69.9613,33.9008 72.5,35C 70.0038,36.331 68.0038,38.1644 66.5,40.5C 66.0269,41.9063 65.0269,42.573 63.5,42.5C 59.4277,43.75 59.0944,44.75 62.5,45.5C 66.7491,44.9895 70.7491,43.9895 74.5,42.5C 76.6877,43.5357 76.6877,45.0357 74.5,47C 75.448,47.4828 76.448,47.6495 77.5,47.5C 78.6602,49.2027 77.9935,49.8693 75.5,49.5C 75.8072,51.4458 75.8072,53.1125 75.5,54.5C 69.9062,52.9462 64.2395,52.1129 58.5,52C 60.3911,53.4424 62.3911,54.6091 64.5,55.5C 68.0246,56.7589 71.0246,58.7589 73.5,61.5C 72.713,63.1042 71.3797,63.7709 69.5,63.5C 69.33,64.8221 69.6634,65.9887 70.5,67C 67.8094,66.9461 65.9761,68.1128 65,70.5C 64.2917,69.6195 63.4584,68.9528 62.5,68.5C 60.4525,66.4504 58.7859,64.117 57.5,61.5C 57.205,59.5767 56.3717,57.9101 55,56.5C 54.2549,60.4479 54.7549,64.1145 56.5,67.5C 56.7989,69.604 56.4656,71.604 55.5,73.5C 53.7751,71.9084 52.7751,72.2417 52.5,74.5C 52.719,75.675 52.3857,76.675 51.5,77.5C 50.8933,77.3764 50.56,77.0431 50.5,76.5C 50.5277,72.5163 48.861,71.5163 45.5,73.5C 46.0508,70.1933 46.3841,66.8599 46.5,63.5C 47.6932,61.0304 48.1932,58.3637 48,55.5C 44.4186,60.328 41.0852,65.328 38,70.5C 36.8139,68.3234 34.9806,67.3234 32.5,67.5C 32.6766,65.0194 31.6766,63.1861 29.5,62C 34.672,58.9148 39.672,55.5814 44.5,52C 38.7457,52.0187 33.079,52.852 27.5,54.5C 26.269,53.3493 26.269,52.1827 27.5,51C 26.3774,49.9563 25.0441,49.2896 23.5,49C 26.7925,48.4235 27.7925,46.7569 26.5,44C 26.8361,42.9701 27.5028,42.4701 28.5,42.5C 33.171,44.7439 38.171,45.5772 43.5,45C 39.4514,41.6482 35.1181,38.8148 30.5,36.5C 30.3893,35.8826 30.056,35.3826 29.5,35C 31.5407,33.7582 32.7073,31.9249 33,29.5C 34.0113,30.3366 35.1779,30.67 36.5,30.5C 36.2291,28.6203 36.8958,27.287 38.5,26.5C 41.2411,28.9754 43.2411,31.9754 44.5,35.5C 45.3909,37.6089 46.5576,39.6089 48,41.5C 48.2753,38.9417 47.7753,36.6084 46.5,34.5C 46.5,34.1667 46.5,33.8333 46.5,33.5C 46.0244,30.0729 46.0244,26.7395 46.5,23.5C 48.8088,24.9327 50.3088,24.266 51,21.5C 51.3826,22.056 51.8826,22.3893 52.5,22.5 Z"/></g>
<g><path style="opacity:1" fill="#000000" d="M 58.5,34.5 C 57.6597,36.8525 56.3264,38.8525 54.5,40.5C 54.7756,35.7861 55.4423,31.1194 56.5,26.5C 56.1667,25.5 55.8333,24.5 55.5,23.5C 53.7751,25.0916 52.7751,24.7583 52.5,22.5C 54.5412,22.1459 56.3745,22.1459 58,22.5C 57.9047,25.9945 57.4047,29.4945 56.5,33C 56.324,35.3595 56.9907,35.8595 58.5,34.5 Z"/></g>
<g><path style="opacity:1" fill="#000000" d="M 38.5,26.5 C 36.8958,27.287 36.2291,28.6203 36.5,30.5C 35.1779,30.67 34.0113,30.3366 33,29.5C 32.7073,31.9249 31.5407,33.7582 29.5,35C 30.056,35.3826 30.3893,35.8826 30.5,36.5C 29.0047,36.5852 28.0047,35.9185 27.5,34.5C 28.8333,33.5 30.1667,32.5 31.5,31.5C 30.1263,28.379 30.9596,27.379 34,28.5C 35.4768,27.556 36.4768,26.2226 37,24.5C 37.7172,25.0442 38.2172,25.7109 38.5,26.5 Z"/></g>
<g><path style="opacity:1" fill="#000000" d="M 54.5,40.5 C 54.3505,41.552 54.5172,42.552 55,43.5C 58.0155,40.3172 61.1822,37.3172 64.5,34.5C 62.3967,38.1558 59.3967,41.6558 55.5,45C 56.1667,45.6667 56.8333,46.3333 57.5,47C 62.8642,47.1705 68.1975,47.6705 73.5,48.5C 67.8722,49.4954 62.2055,49.8288 56.5,49.5C 56.5674,50.9587 56.2341,52.2921 55.5,53.5C 54.2921,54.2341 52.9587,54.5674 51.5,54.5C 51.4961,75.7919 50.8294,75.7919 49.5,54.5C 46.6493,53.9879 45.3159,52.3213 45.5,49.5C 39.8236,49.6661 34.1569,49.4994 28.5,49C 34.6152,48.1558 40.6152,46.9891 46.5,45.5C 45.8625,49.4554 47.3625,52.122 51,53.5C 55.5975,50.7706 56.0975,47.604 52.5,44C 51.2068,43.51 49.8734,43.3433 48.5,43.5C 50.2178,38.1183 51.0512,32.4516 51,26.5C 51.1705,31.8642 51.6705,37.1975 52.5,42.5C 53.1818,41.7573 53.8485,41.0906 54.5,40.5 Z"/></g>
<g><path style="opacity:1" fill="#000000" d="M 65.5,26.5 C 66.9049,28.3789 68.5716,28.7122 70.5,27.5C 71.1985,30.269 72.5318,32.6024 74.5,34.5C 72.527,37.4803 69.8603,39.4803 66.5,40.5C 68.0038,38.1644 70.0038,36.331 72.5,35C 69.9613,33.9008 69.2946,32.2342 70.5,30C 67.4625,31.1596 65.7958,29.993 65.5,26.5 Z"/></g>
<g><path style="opacity:1" fill="#e10a15" d="M 160.5,28.5 C 161.664,64.6644 161.831,100.998 161,137.5C 152.72,172.78 130.887,194.28 95.5,202C 67.3818,205.858 43.5484,197.691 24,177.5C 21.1667,174 18.3333,170.5 15.5,167C 64.3348,121.331 112.668,75.1646 160.5,28.5 Z"/></g>
<g><path style="opacity:1" fill="#000000" d="M 48.5,43.5 C 48.1667,44.5 47.5,45.1667 46.5,45.5C 42.7036,41.2022 38.7036,37.0356 34.5,33C 35.1667,32.3333 35.8333,32.3333 36.5,33C 40.0954,37.1042 44.0954,40.6042 48.5,43.5 Z"/></g>
<g><path style="opacity:1" fill="#000000" d="M 46.5,34.5 C 47.7753,36.6084 48.2753,38.9417 48,41.5C 46.5576,39.6089 45.3909,37.6089 44.5,35.5C 45.9245,37.0311 46.5912,36.6977 46.5,34.5 Z"/></g>
<g><path style="opacity:1" fill="#000000" d="M 30.5,36.5 C 35.1181,38.8148 39.4514,41.6482 43.5,45C 38.171,45.5772 33.171,44.7439 28.5,42.5C 31.8895,42.6321 35.2228,42.7988 38.5,43C 35.5798,41.0539 32.9131,38.8872 30.5,36.5 Z"/></g>
<g><path style="opacity:1" fill="#000000" d="M 28.5,42.5 C 27.5028,42.4701 26.8361,42.9701 26.5,44C 27.7925,46.7569 26.7925,48.4235 23.5,49C 25.0441,49.2896 26.3774,49.9563 27.5,51C 26.269,52.1827 26.269,53.3493 27.5,54.5C 33.079,52.852 38.7457,52.0187 44.5,52C 39.672,55.5814 34.672,58.9148 29.5,62C 31.6766,63.1861 32.6766,65.0194 32.5,67.5C 34.9806,67.3234 36.8139,68.3234 38,70.5C 41.0852,65.328 44.4186,60.328 48,55.5C 48.1932,58.3637 47.6932,61.0304 46.5,63.5C 46.631,62.7611 46.4643,62.0944 46,61.5C 43.7069,65.7576 40.7069,69.4242 37,72.5C 36.4169,70.9984 35.5836,69.6651 34.5,68.5C 33.2638,69.2458 31.9305,69.5792 30.5,69.5C 30.4208,68.0695 30.7542,66.7362 31.5,65.5C 30.1667,64.5 28.8333,63.5 27.5,62.5C 30.7667,59.1941 34.4333,56.3608 38.5,54C 35.0279,54.2361 31.5279,54.7361 28,55.5C 26.8333,55.1667 25.6667,54.8333 24.5,54.5C 25.6769,52.1265 25.0102,50.2931 22.5,49C 23.5089,47.8319 24.5089,46.6652 25.5,45.5C 24.7542,44.2638 24.4208,42.9305 24.5,41.5C 26.099,41.2322 27.4324,41.5655 28.5,42.5 Z"/></g>
<g><path style="opacity:1" fill="#000000" d="M 74.5,42.5 C 75.209,41.596 76.209,41.2627 77.5,41.5C 77.0651,43.7033 77.0651,45.7033 77.5,47.5C 76.448,47.6495 75.448,47.4828 74.5,47C 76.6877,45.0357 76.6877,43.5357 74.5,42.5 Z"/></g>
<g><path style="opacity:1" fill="#000000" d="M 63.5,42.5 C 66.962,42.9396 70.6287,42.9396 74.5,42.5C 70.7491,43.9895 66.7491,44.9895 62.5,45.5C 59.0944,44.75 59.4277,43.75 63.5,42.5 Z"/></g>
<g><path style="opacity:1" fill="#002b72" d="M 48.5,43.5 C 49.8734,43.3433 51.2068,43.51 52.5,44C 56.0975,47.604 55.5975,50.7706 51,53.5C 47.3625,52.122 45.8625,49.4554 46.5,45.5C 47.5,45.1667 48.1667,44.5 48.5,43.5 Z"/></g>
<g><path style="opacity:1" fill="#000000" d="M 77.5,47.5 C 78.4972,47.4701 79.1639,47.9701 79.5,49C 77.9972,50.9214 77.3305,53.088 77.5,55.5C 73.2094,55.6251 69.0427,54.9584 65,53.5C 63.3164,53.6834 63.1498,54.3501 64.5,55.5C 62.3911,54.6091 60.3911,53.4424 58.5,52C 64.2395,52.1129 69.9062,52.9462 75.5,54.5C 75.8072,53.1125 75.8072,51.4458 75.5,49.5C 77.9935,49.8693 78.6602,49.2027 77.5,47.5 Z"/></g>
<g><path style="opacity:1" fill="#000000" d="M 55.5,53.5 C 59.9046,56.3958 63.9046,59.8958 67.5,64C 62.847,61.5314 58.847,58.0314 55.5,53.5 Z"/></g>
<g><path style="opacity:1" fill="#000000" d="M 57.5,61.5 C 56.5386,63.2646 56.2053,65.2646 56.5,67.5C 54.7549,64.1145 54.2549,60.4479 55,56.5C 56.3717,57.9101 57.205,59.5767 57.5,61.5 Z"/></g>
<g><path style="opacity:1" fill="#000000" d="M 73.5,61.5 C 74.525,61.8966 74.6917,62.5632 74,63.5C 72.9326,64.1905 71.7659,64.6905 70.5,65C 71.3802,66.3561 71.7135,67.8561 71.5,69.5C 70.1779,69.67 69.0113,69.3366 68,68.5C 65.9341,73.7785 64.1008,73.7785 62.5,68.5C 63.4584,68.9528 64.2917,69.6195 65,70.5C 65.9761,68.1128 67.8094,66.9461 70.5,67C 69.6634,65.9887 69.33,64.8221 69.5,63.5C 71.3797,63.7709 72.713,63.1042 73.5,61.5 Z"/></g>
<g><path style="opacity:1" fill="#000000" d="M 46.5,63.5 C 46.3841,66.8599 46.0508,70.1933 45.5,73.5C 48.861,71.5163 50.5277,72.5163 50.5,76.5C 48.3045,75.0035 45.9712,74.1701 43.5,74C 44.2395,70.3385 45.2395,66.8385 46.5,63.5 Z"/></g>
<g><path style="opacity:1" fill="#000000" d="M 56.5,67.5 C 57.7682,69.9052 58.4349,72.5718 58.5,75.5C 56.5,75.1667 54.5,74.8333 52.5,74.5C 52.7751,72.2417 53.7751,71.9084 55.5,73.5C 56.4656,71.604 56.7989,69.604 56.5,67.5 Z"/></g>
<g><path style="opacity:1" fill="#0b0b0b" d="M 111.5,94.5 C 114.685,94.0196 117.519,94.6863 120,96.5C 120.333,103.5 120.667,110.5 121,117.5C 126.143,118.213 131.31,119.046 136.5,120C 139.111,121.609 140.444,123.942 140.5,127C 139.564,142.201 133.564,154.867 122.5,165C 119.958,166.77 117.291,168.27 114.5,169.5C 103.051,164.551 95.2176,156.218 91,144.5C 89.7671,139.168 88.6004,133.834 87.5,128.5C 88.3615,125.401 89.6949,122.567 91.5,120C 96.5,119.667 101.5,119.333 106.5,119C 107,118.5 107.5,118 108,117.5C 109.219,110.579 109.886,103.579 110,96.5C 110.717,95.9558 111.217,95.2891 111.5,94.5 Z"/></g>
<g><path style="opacity:1" fill="#fefffe" d="M 111.5,96.5 C 113.604,96.2011 115.604,96.5344 117.5,97.5C 116.5,97.8333 115.5,98.1667 114.5,98.5C 112.97,98.3601 111.97,97.6935 111.5,96.5 Z"/></g>
<g><path style="opacity:1" fill="#fefffe" d="M 110.5,100.5 C 113.041,101.649 115.541,101.649 118,100.5C 118.333,106.167 118.667,111.833 119,117.5C 119.792,119.587 120.959,121.421 122.5,123C 127.167,123.333 131.833,123.667 136.5,124C 138.827,138.681 134.494,151.347 123.5,162C 120.795,164.351 117.795,166.184 114.5,167.5C 98.4979,160.533 90.1645,148.2 89.5,130.5C 89.7409,124.727 92.5742,123.06 98,125.5C 110.024,121.464 114.19,113.13 110.5,100.5 Z"/></g>
<g><path style="opacity:1" fill="#0e0e0e" d="M 112.5,105.5 C 115.729,105.165 117.229,106.498 117,109.5C 112.757,110.981 111.257,109.647 112.5,105.5 Z"/></g>
<g><path style="opacity:1" fill="#0e0e0e" d="M 112.5,113.5 C 115.729,113.165 117.229,114.498 117,117.5C 112.757,118.981 111.257,117.647 112.5,113.5 Z"/></g>
<g><path style="opacity:1" fill="#fefffe" d="M 93.5,120.5 C 96.8499,120.335 100.183,120.502 103.5,121C 99.7946,123.944 95.7946,124.277 91.5,122C 92.4158,121.722 93.0825,121.222 93.5,120.5 Z"/></g>
<g><path style="opacity:1" fill="#000000" d="M 118.5,121.5 C 119.626,128.728 119.293,136.062 117.5,143.5C 117.167,142.667 116.833,141.833 116.5,141C 117.377,134.518 118.044,128.018 118.5,121.5 Z"/></g>
<g><path style="opacity:1" fill="#000000" d="M 108.5,122.5 C 109.821,125.598 110.488,129.098 110.5,133C 110.333,136.5 110.167,140 110,143.5C 109.108,136.524 108.608,129.524 108.5,122.5 Z"/></g>
<g><path style="opacity:1" fill="#fefffe" d="M -0.5,131.5 C 6.25968,171.928 29.593,196.928 69.5,206.5C 46.1667,206.5 22.8333,206.5 -0.5,206.5C -0.5,181.5 -0.5,156.5 -0.5,131.5 Z"/></g>
<g><path style="opacity:1" fill="#fefffe" d="M 165.5,133.5 C 165.5,157.833 165.5,182.167 165.5,206.5C 142.167,206.5 118.833,206.5 95.5,206.5C 104.002,204.388 112.336,201.554 120.5,198C 145.657,183.381 160.657,161.881 165.5,133.5 Z"/></g>
</svg>

<svg xmlns="http://www.w3.org/2000/svg" width="166" height="207" style="shape-rendering:geometricPrecision;text-rendering:geometricPrecision;image-rendering:optimizeQuality;fill-rule:evenodd;clip-rule:evenodd"><path style="opacity:1" d="M-.5-.5h166v134c-4.843 28.381-19.843 49.881-45 64.5a157.946 157.946 0 0 1-25 8.5h-26c-39.907-9.572-63.24-34.572-70-75V-.5z"/><path style="opacity:1" fill="#fea700" d="M3.5 3.5c50.001-.167 100.001 0 150 .5-9.187 2.852-16.354 8.352-21.5 16.5a72.385 72.385 0 0 1-8 14L100.5 52l-16 21a7516.182 7516.182 0 0 0-22 14c-7.712 7.04-13.879 15.206-18.5 24.5-3.842 5.517-9.009 9.017-15.5 10.5a64.735 64.735 0 0 1-9 6A86.203 86.203 0 0 0 7 146.5a82.1 82.1 0 0 1-3-11c-.5-43.999-.667-87.999-.5-132z"/><path style="opacity:1" fill="#002b72" d="M157.5 3.5h4v8a8.435 8.435 0 0 0-4 .5 128.964 128.964 0 0 1-13 8A328.03 328.03 0 0 1 128 44.5a412.235 412.235 0 0 0-20.5 13 264.376 264.376 0 0 0-16 21.5 306.362 306.362 0 0 0-28 18A186.107 186.107 0 0 0 48 121.5l-3.5 3.5c-10.329 3.736-19.162 9.569-26.5 17.5-2.607 4.88-4.94 9.88-7 15a53.194 53.194 0 0 1-3.5-7.5A136.405 136.405 0 0 1 18 132.5a172.112 172.112 0 0 1 23.5-15 181.477 181.477 0 0 1 22-28.5 337.547 337.547 0 0 1 21-13 517.728 517.728 0 0 1 19-24 75.86 75.86 0 0 1 17-11A87.392 87.392 0 0 0 136 18.5l4.5-4.5c5.461-4.053 11.128-7.553 17-10.5z"/><path style="opacity:1" fill="#fefffe" d="M158.5 13.5h3a43.116 43.116 0 0 1-1 13A27839.903 27839.903 0 0 1 15 164.5a10.017 10.017 0 0 1-2.5-4.5c4.994-16.994 15.994-27.994 33-33l5.5-5.5a320.563 320.563 0 0 1 12-21c8.22-7.376 17.387-13.376 27.5-18a230.738 230.738 0 0 0 17.5-23 579.381 579.381 0 0 1 19.5-12c7.148-6.285 12.315-13.952 15.5-23 4.829-4.314 9.995-7.98 15.5-11z"/><path style="opacity:1" d="M52.5 22.5c-.617-.11-1.117-.444-1.5-1-.691 2.766-2.191 3.433-4.5 2-.476 3.24-.476 6.573 0 10a67.51 67.51 0 0 1-3-10.5c1.046-1.538 2.38-1.705 4-.5 1.588-.51 2.755-1.51 3.5-3 1.039.744 1.539 1.744 1.5 3z"/><path style="opacity:1" fill="#052969" d="M52.5 22.5c.275 2.258 1.275 2.592 3 1l1 3a84.793 84.793 0 0 0-2 14c1.826-1.648 3.16-3.648 4-6 1.524-3.702 3.69-7.035 6.5-10 .464.594.631 1.261.5 2 .296 3.493 1.963 4.66 5 3.5-1.205 2.234-.539 3.9 2 5-2.496 1.331-4.496 3.164-6 5.5-.473 1.406-1.473 2.073-3 2-4.072 1.25-4.406 2.25-1 3 4.25-.51 8.25-1.51 12-3 2.188 1.036 2.188 2.536 0 4.5.948.483 1.948.65 3 .5 1.16 1.703.493 2.37-2 2 .307 1.946.307 3.612 0 5a68.296 68.296 0 0 0-17-2.5 27.548 27.548 0 0 0 6 3.5c3.525 1.259 6.525 3.259 9 6-.787 1.604-2.12 2.27-4 2-.17 1.322.163 2.489 1 3.5-2.69-.054-4.524 1.113-5.5 3.5-.708-.88-1.542-1.547-2.5-2a26.156 26.156 0 0 1-5-7c-.295-1.923-1.128-3.59-2.5-5-.745 3.948-.245 7.615 1.5 11a9.864 9.864 0 0 1-1 6c-1.725-1.592-2.725-1.258-3 1 .219 1.175-.114 2.175-1 3-.607-.124-.94-.457-1-1 .028-3.984-1.639-4.984-5-3a76.94 76.94 0 0 0 1-10c1.193-2.47 1.693-5.136 1.5-8a179.568 179.568 0 0 0-10 15c-1.186-2.177-3.02-3.177-5.5-3 .177-2.48-.823-4.314-3-5.5a179.568 179.568 0 0 0 15-10 60.41 60.41 0 0 0-17 2.5c-1.231-1.15-1.231-2.317 0-3.5-1.123-1.044-2.456-1.71-4-2 3.293-.577 4.293-2.243 3-5 .336-1.03 1.003-1.53 2-1.5 4.671 2.244 9.671 3.077 15 2.5a68.393 68.393 0 0 0-13-8.5c-.11-.617-.444-1.117-1-1.5 2.04-1.242 3.207-3.075 3.5-5.5 1.011.837 2.178 1.17 3.5 1-.27-1.88.396-3.213 2-4 2.741 2.475 4.741 5.475 6 9a27.548 27.548 0 0 0 3.5 6c.275-2.558-.225-4.892-1.5-7v-1c-.476-3.427-.476-6.76 0-10 2.309 1.433 3.809.766 4.5-2 .383.556.883.89 1.5 1z"/><path style="opacity:1" d="M58.5 34.5c-.84 2.352-2.174 4.352-4 6 .276-4.714.942-9.38 2-14l-1-3c-1.725 1.592-2.725 1.258-3-1 2.041-.354 3.874-.354 5.5 0A47.038 47.038 0 0 1 56.5 33c-.176 2.36.49 2.86 2 1.5zM38.5 26.5c-1.604.787-2.27 2.12-2 4-1.322.17-2.489-.163-3.5-1-.293 2.425-1.46 4.258-3.5 5.5.556.383.89.883 1 1.5-1.495.085-2.495-.581-3-2l4-3c-1.374-3.121-.54-4.121 2.5-3 1.477-.944 2.477-2.277 3-4 .717.544 1.217 1.21 1.5 2z"/><path style="opacity:1" d="M54.5 40.5a4.932 4.932 0 0 0 .5 3 120.692 120.692 0 0 1 9.5-9c-2.103 3.656-5.103 7.156-9 10.5l2 2c5.364.17 10.698.67 16 1.5a73.123 73.123 0 0 1-17 1c.067 1.459-.266 2.792-1 4-1.208.734-2.541 1.067-4 1-.004 21.292-.67 21.292-2 0-2.85-.512-4.184-2.179-4-5-5.676.166-11.343 0-17-.5a165.678 165.678 0 0 0 18-3.5c-.638 3.955.862 6.622 4.5 8 4.597-2.73 5.097-5.896 1.5-9.5a8.434 8.434 0 0 0-4-.5c1.718-5.382 2.551-11.048 2.5-17 .17 5.364.67 10.697 1.5 16a30.943 30.943 0 0 1 2-2z"/><path style="opacity:1" d="M65.5 26.5c1.405 1.879 3.072 2.212 5 1 .698 2.769 2.032 5.102 4 7-1.973 2.98-4.64 4.98-8 6 1.504-2.336 3.504-4.169 6-5.5-2.539-1.1-3.205-2.766-2-5-3.037 1.16-4.704-.007-5-3.5z"/><path style="opacity:1" fill="#e10a15" d="M160.5 28.5a1984.017 1984.017 0 0 1 .5 109c-8.28 35.28-30.113 56.78-65.5 64.5-28.118 3.858-51.952-4.309-71.5-24.5L15.5 167a9488.068 9488.068 0 0 0 145-138.5z"/><path style="opacity:1" d="M48.5 43.5c-.333 1-1 1.667-2 2a210.64 210.64 0 0 0-12-12.5c.667-.667 1.333-.667 2 0 3.595 4.104 7.595 7.604 12 10.5zM46.5 34.5c1.275 2.108 1.775 4.442 1.5 7a27.548 27.548 0 0 1-3.5-6c1.425 1.531 2.091 1.198 2-1zM30.5 36.5a68.393 68.393 0 0 1 13 8.5c-5.329.577-10.329-.256-15-2.5 3.39.132 6.723.299 10 .5a53.61 53.61 0 0 1-8-6.5z"/><path style="opacity:1" d="M28.5 42.5c-.997-.03-1.664.47-2 1.5 1.293 2.757.293 4.423-3 5 1.544.29 2.877.956 4 2-1.231 1.183-1.231 2.35 0 3.5a60.41 60.41 0 0 1 17-2.5 179.568 179.568 0 0 1-15 10c2.177 1.186 3.177 3.02 3 5.5 2.48-.177 4.314.823 5.5 3a179.568 179.568 0 0 1 10-15c.193 2.864-.307 5.53-1.5 8a2.428 2.428 0 0 0-.5-2 36.888 36.888 0 0 1-9 11 12.417 12.417 0 0 0-2.5-4 6.845 6.845 0 0 1-4 1 6.845 6.845 0 0 1 1-4l-4-3a52.306 52.306 0 0 1 11-8.5A72.962 72.962 0 0 0 28 55.5l-3.5-1c1.177-2.373.51-4.207-2-5.5a609.189 609.189 0 0 0 3-3.5 6.845 6.845 0 0 1-1-4c1.599-.268 2.932.066 4 1zM74.5 42.5c.709-.904 1.709-1.237 3-1-.435 2.203-.435 4.203 0 6a4.932 4.932 0 0 1-3-.5c2.188-1.964 2.188-3.464 0-4.5zM63.5 42.5c3.462.44 7.129.44 11 0-3.75 1.49-7.75 2.49-12 3-3.406-.75-3.072-1.75 1-3z"/><path style="opacity:1" fill="#002b72" d="M48.5 43.5a8.434 8.434 0 0 1 4 .5c3.597 3.604 3.097 6.77-1.5 9.5-3.638-1.378-5.138-4.045-4.5-8 1-.333 1.667-1 2-2z"/><path style="opacity:1" d="M77.5 47.5c.997-.03 1.664.47 2 1.5-1.503 1.921-2.17 4.088-2 6.5a33.628 33.628 0 0 1-12.5-2c-1.684.183-1.85.85-.5 2a27.548 27.548 0 0 1-6-3.5c5.74.113 11.406.946 17 2.5.307-1.388.307-3.054 0-5 2.493.37 3.16-.297 2-2zM55.5 53.5c4.405 2.896 8.405 6.396 12 10.5-4.653-2.469-8.653-5.969-12-10.5zM57.5 61.5c-.961 1.765-1.295 3.765-1 6-1.745-3.385-2.245-7.052-1.5-11 1.372 1.41 2.205 3.077 2.5 5zM73.5 61.5c1.025.397 1.192 1.063.5 2a11.362 11.362 0 0 1-3.5 1.5c.88 1.356 1.213 2.856 1 4.5-1.322.17-2.489-.163-3.5-1-2.066 5.278-3.9 5.278-5.5 0 .958.453 1.792 1.12 2.5 2 .976-2.387 2.81-3.554 5.5-3.5-.837-1.011-1.17-2.178-1-3.5 1.88.27 3.213-.396 4-2zM46.5 63.5a76.94 76.94 0 0 1-1 10c3.361-1.984 5.028-.984 5 3-2.196-1.496-4.529-2.33-7-2.5a67.51 67.51 0 0 1 3-10.5zM56.5 67.5c1.268 2.405 1.935 5.072 2 8l-6-1c.275-2.258 1.275-2.592 3-1a9.864 9.864 0 0 0 1-6z"/><path style="opacity:1" fill="#0b0b0b" d="M111.5 94.5c3.185-.48 6.019.186 8.5 2l1 21a356.6 356.6 0 0 1 15.5 2.5c2.611 1.609 3.944 3.942 4 7-.936 15.201-6.936 27.867-18 38a47.49 47.49 0 0 1-8 4.5c-11.449-4.949-19.282-13.282-23.5-25a688.55 688.55 0 0 1-3.5-16c.862-3.099 2.195-5.933 4-8.5l15-1 1.5-1.5a133.243 133.243 0 0 0 2-21c.717-.544 1.217-1.21 1.5-2z"/><path style="opacity:1" fill="#fefffe" d="M111.5 96.5a9.864 9.864 0 0 1 6 1l-3 1c-1.53-.14-2.53-.806-3-2zM110.5 100.5c2.541 1.149 5.041 1.149 7.5 0l1 17a15.83 15.83 0 0 0 3.5 5.5l14 1c2.327 14.681-2.006 27.347-13 38a31.365 31.365 0 0 1-9 5.5c-16.002-6.967-24.335-19.3-25-37 .24-5.773 3.074-7.44 8.5-5 12.024-4.036 16.19-12.37 12.5-25z"/><path style="opacity:1" fill="#0e0e0e" d="M112.5 105.5c3.229-.335 4.729.998 4.5 4-4.243 1.481-5.743.147-4.5-4zM112.5 113.5c3.229-.335 4.729.998 4.5 4-4.243 1.481-5.743.147-4.5-4z"/><path style="opacity:1" fill="#fefffe" d="M93.5 120.5c3.35-.165 6.683.002 10 .5-3.705 2.944-7.705 3.277-12 1 .916-.278 1.582-.778 2-1.5z"/><path style="opacity:1" d="M118.5 121.5c1.126 7.228.793 14.562-1 22l-1-2.5a303.252 303.252 0 0 0 2-19.5zM108.5 122.5c1.321 3.098 1.988 6.598 2 10.5l-.5 10.5a188.261 188.261 0 0 1-1.5-21z"/><path style="opacity:1" fill="#fefffe" d="M-.5 131.5c6.76 40.428 30.093 65.428 70 75h-70v-75zM165.5 133.5v73h-70a157.946 157.946 0 0 0 25-8.5c25.157-14.619 40.157-36.119 45-64.5z"/></svg>
